svgs/boost_for_reddit.svg

<svg width="192" height="192" viewBox="0 0 192 192" fill="none" xmlns="http://www.w3.org/2000/svg">
<path d="M92.9533 57.1543C115.581 34.5269 150.936 21.799 169.321 23.2132C170.735 41.598 158.007 76.9533 135.38 99.5807C112.752 122.208 87.2964 139.179 73.1543 144.836L47.6984 119.38C53.3553 105.238 70.3259 79.7817 92.9533 57.1543Z" stroke="black" stroke-width="12" stroke-linecap="round" stroke-linejoin="round"/>
<path d="M87.2964 105.238L47.6985 144.836" stroke="black" stroke-width="12" stroke-linecap="round" stroke-linejoin="round"/>
<circle cx="128.309" cy="64.2252" r="12" transform="rotate(45 128.309 64.2252)" fill="black"/>
<path d="M115.581 119.38L117.15 136.636C117.929 145.206 114.06 153.536 107.011 158.471L90.1249 170.291L88.7107 137.764" stroke="black" stroke-width="12" stroke-linecap="round" stroke-linejoin="round"/>
<path d="M73.1543 76.9532L55.8975 75.3844C47.3281 74.6053 38.9975 78.4735 34.0631 85.5227L22.2426 102.409L54.7696 103.823" stroke="black" stroke-width="12" stroke-linecap="round" stroke-linejoin="round"/>
</svg>

<svg width="192" height="192" viewBox="0 0 192 192" fill="none" xmlns="http://www.w3.org/2000/svg"><path d="M92.953 57.154c22.628-22.627 57.983-35.355 76.368-33.94 1.414 18.384-11.314 53.74-33.941 76.367-22.628 22.627-48.084 39.598-62.226 45.255L47.698 119.38c5.657-14.142 22.628-39.598 45.255-62.226ZM87.296 105.238l-39.598 39.598" stroke="#000" stroke-width="12" stroke-linecap="round" stroke-linejoin="round"/><circle cx="128.309" cy="64.225" r="12" transform="rotate(45 128.309 64.225)" fill="#000"/><path d="m115.581 119.38 1.569 17.256c.779 8.57-3.09 16.9-10.139 21.835l-16.886 11.82-1.414-32.527M73.154 76.953l-17.256-1.569a24 24 0 0 0-21.835 10.139l-11.82 16.886 32.527 1.414" stroke="#000" stroke-width="12" stroke-linecap="round" stroke-linejoin="round"/></svg>
